public/logos/BF.svg

<?xml version="1.0" encoding="UTF-8"?>
<svg xmlns="http://www.w3.org/2000/svg" xmlns:xlink="http://www.w3.org/1999/xlink" width="176pt" height="27.35pt" viewBox="0 0 176 27.35" version="1.1">
<defs>
<clipPath id="clip1">
  <path d="M 154 19 L 162 19 L 162 27.351562 L 154 27.351562 Z M 154 19 "/>
</clipPath>
<clipPath id="clip2">
  <path d="M 24 11 L 40 11 L 40 27.351562 L 24 27.351562 Z M 24 11 "/>
</clipPath>
<clipPath id="clip3">
  <path d="M 110 11 L 126 11 L 126 27.351562 L 110 27.351562 Z M 110 11 "/>
</clipPath>
<clipPath id="clip4">
  <path d="M 127 11 L 142 11 L 142 27.351562 L 127 27.351562 Z M 127 11 "/>
</clipPath>
<clipPath id="clip5">
  <path d="M 58 11 L 74 11 L 74 27.351562 L 58 27.351562 Z M 58 11 "/>
</clipPath>
<clipPath id="clip6">
  <path d="M 93 7 L 109 7 L 109 27.351562 L 93 27.351562 Z M 93 7 "/>
</clipPath>
</defs>
<g id="surface1">
<path style=" stroke:none;fill-rule:nonzero;fill:rgb(30.171204%,68.440247%,90.223694%);fill-opacity:1;" d="M 161.117188 18.621094 C 155.265625 10.179688 154.335938 -1.847656 160.445312 0.234375 C 166.585938 2.34375 175.253906 8.613281 161.117188 18.621094 "/>
<path style=" stroke:none;fill-rule:nonzero;fill:rgb(16.345215%,30.61676%,64.265442%);fill-opacity:1;" d="M 161.117188 18.621094 C 155.328125 22.460938 147.429688 22.777344 148.324219 19.261719 C 149.253906 15.550781 153.027344 9.828125 161.117188 18.621094 "/>
<path style=" stroke:none;fill-rule:nonzero;fill:rgb(47.171021%,81.703186%,94.773865%);fill-opacity:1;" d="M 161.53125 19.292969 C 163.355469 22.394531 167.800781 23.644531 171.191406 20.347656 C 175.796875 15.871094 182.542969 6.117188 161.53125 19.292969 "/>
<g clip-path="url(#clip1)" clip-rule="nonzero">
<path style=" stroke:none;fill-rule:nonzero;fill:rgb(39.364624%,46.99707%,76.591492%);fill-opacity:1;" d="M 161.53125 19.292969 C 156.992188 22.332031 153.347656 27.222656 155.550781 27.191406 C 157.789062 27.128906 163.195312 24.121094 161.53125 19.292969 "/>
</g>
<path style=" stroke:none;fill-rule:nonzero;fill:rgb(16.479492%,30.596924%,64.701843%);fill-opacity:1;" d="M 0 7.144531 L 12.410156 7.144531 L 12.410156 10.53125 L 3.914062 10.53125 L 3.914062 15.613281 L 11.066406 15.613281 L 11.066406 19 L 3.914062 19 L 3.914062 27 L 0 27 L 0 7.144531 "/>
<path style=" stroke:none;fill-rule:nonzero;fill:rgb(16.479492%,30.596924%,64.701843%);fill-opacity:1;" d="M 14.539062 11.464844 L 18.25 11.464844 L 18.25 14.152344 C 18.25 14.734375 18.191406 15.230469 18.191406 15.230469 L 18.25 15.230469 C 18.949219 13.011719 20.789062 11.261719 23.183594 11.261719 C 23.535156 11.261719 23.886719 11.320312 23.886719 11.320312 L 23.886719 15.117188 C 23.886719 15.117188 23.476562 15.058594 22.980469 15.058594 C 21.34375 15.058594 19.476562 15.992188 18.746094 18.296875 C 18.511719 19.058594 18.425781 19.902344 18.425781 20.808594 L 18.425781 26.941406 L 14.539062 26.941406 L 14.539062 11.464844 "/>
<g clip-path="url(#clip2)" clip-rule="nonzero">
<path style=" stroke:none;fill-rule:nonzero;fill:rgb(16.479492%,30.596924%,64.701843%);fill-opacity:1;" d="M 35.566406 17.304688 C 35.507812 15.203125 34.191406 14.09375 32.5 14.09375 C 30.511719 14.09375 29.140625 15.320312 28.789062 17.304688 Z M 32.585938 11.085938 C 37.054688 11.085938 39.449219 14.328125 39.449219 18.445312 C 39.449219 18.910156 39.359375 19.933594 39.359375 19.933594 L 28.644531 19.933594 C 28.878906 22.648438 30.980469 24.050781 33.285156 24.050781 C 35.769531 24.050781 37.753906 22.355469 37.753906 22.355469 L 39.242188 25.128906 C 39.242188 25.128906 36.878906 27.351562 33.023438 27.351562 C 27.886719 27.351562 24.703125 23.640625 24.703125 19.230469 C 24.703125 14.445312 27.972656 11.085938 32.585938 11.085938 "/>
</g>
<g clip-path="url(#clip3)" clip-rule="nonzero">
<path style=" stroke:none;fill-rule:nonzero;fill:rgb(30.717468%,67.529297%,89.624023%);fill-opacity:1;" d="M 121.40625 17.304688 C 121.351562 15.203125 120.035156 14.09375 118.34375 14.09375 C 116.355469 14.09375 114.984375 15.320312 114.632812 17.304688 Z M 118.429688 11.085938 C 122.898438 11.085938 125.292969 14.328125 125.292969 18.445312 C 125.292969 18.910156 125.203125 19.933594 125.203125 19.933594 L 114.488281 19.933594 C 114.722656 22.648438 116.824219 24.050781 119.132812 24.050781 C 121.613281 24.050781 123.597656 22.355469 123.597656 22.355469 L 125.089844 25.128906 C 125.089844 25.128906 122.722656 27.351562 118.867188 27.351562 C 113.730469 27.351562 110.546875 23.640625 110.546875 19.230469 C 110.574219 14.445312 113.816406 11.085938 118.429688 11.085938 "/>
</g>
<g clip-path="url(#clip4)" clip-rule="nonzero">
<path style=" stroke:none;fill-rule:nonzero;fill:rgb(30.717468%,67.529297%,89.624023%);fill-opacity:1;" d="M 138.109375 17.304688 C 138.050781 15.203125 136.738281 14.09375 135.042969 14.09375 C 133.058594 14.09375 131.6875 15.320312 131.335938 17.304688 Z M 135.132812 11.085938 C 139.601562 11.085938 141.992188 14.328125 141.992188 18.445312 C 141.992188 18.910156 141.90625 19.933594 141.90625 19.933594 L 131.191406 19.933594 C 131.425781 22.648438 133.527344 24.050781 135.832031 24.050781 C 138.316406 24.050781 140.300781 22.355469 140.300781 22.355469 L 141.789062 25.128906 C 141.789062 25.128906 139.425781 27.351562 135.570312 27.351562 C 130.433594 27.351562 127.25 23.640625 127.25 19.230469 C 127.25 14.445312 130.488281 11.085938 135.132812 11.085938 "/>
</g>
<path style=" stroke:none;fill-rule:nonzero;fill:rgb(16.479492%,30.596924%,64.701843%);fill-opacity:1;" d="M 41.957031 11.464844 L 45.667969 11.464844 L 45.667969 13.246094 C 45.667969 13.832031 45.609375 14.296875 45.609375 14.296875 L 45.667969 14.296875 C 46.339844 12.984375 48.03125 11.085938 51.15625 11.085938 C 54.632812 11.085938 56.558594 12.894531 56.558594 16.984375 L 56.558594 26.96875 L 52.734375 26.96875 L 52.734375 17.800781 C 52.734375 15.902344 52.238281 14.648438 50.28125 14.648438 C 48.207031 14.648438 46.691406 15.960938 46.105469 17.800781 C 45.902344 18.445312 45.84375 19.144531 45.84375 19.875 L 45.84375 27 L 41.960938 27 L 41.960938 11.464844 L 41.957031 11.464844 "/>
<g clip-path="url(#clip5)" clip-rule="nonzero">
<path style=" stroke:none;fill-rule:nonzero;fill:rgb(16.479492%,30.596924%,64.701843%);fill-opacity:1;" d="M 66.863281 11.085938 C 70.925781 11.085938 72.820312 13.394531 72.820312 13.394531 L 71.128906 16.050781 C 71.128906 16.050781 69.523438 14.386719 67.070312 14.386719 C 64.207031 14.386719 62.367188 16.546875 62.367188 19.203125 C 62.367188 21.832031 64.265625 24.078125 67.214844 24.078125 C 69.84375 24.078125 71.769531 22.09375 71.769531 22.09375 L 73.261719 24.839844 C 73.261719 24.839844 71.039062 27.351562 66.867188 27.351562 C 61.726562 27.351562 58.457031 23.730469 58.457031 19.234375 C 58.457031 14.824219 61.726562 11.085938 66.863281 11.085938 "/>
</g>
<path style=" stroke:none;fill-rule:nonzero;fill:rgb(16.479492%,30.596924%,64.701843%);fill-opacity:1;" d="M 74.953125 7.144531 L 78.808594 7.144531 L 78.808594 12.867188 C 78.808594 13.625 78.75 14.179688 78.75 14.179688 L 78.808594 14.179688 C 79.566406 12.691406 81.464844 11.113281 84.152344 11.113281 C 87.597656 11.085938 89.554688 12.894531 89.554688 16.984375 L 89.554688 26.96875 L 85.726562 26.96875 L 85.726562 17.800781 C 85.726562 15.902344 85.230469 14.648438 83.277344 14.648438 C 81.230469 14.648438 79.65625 15.992188 79.070312 17.859375 C 78.894531 18.472656 78.835938 19.144531 78.835938 19.875 L 78.835938 27 L 74.953125 27 L 74.953125 7.144531 "/>
<g clip-path="url(#clip6)" clip-rule="nonzero">
<path style=" stroke:none;fill-rule:nonzero;fill:rgb(30.717468%,67.529297%,89.624023%);fill-opacity:1;" d="M 100.851562 24.078125 C 102.984375 24.078125 104.738281 22.355469 104.738281 19.261719 C 104.738281 16.3125 103.160156 14.386719 100.882812 14.386719 C 98.867188 14.386719 97 15.84375 97 19.292969 C 97 21.714844 98.253906 24.078125 100.851562 24.078125 Z M 93.261719 7.144531 L 97.117188 7.144531 L 97.117188 12.050781 C 97.117188 12.808594 97.054688 13.363281 97.054688 13.363281 L 97.117188 13.363281 C 97.117188 13.363281 98.488281 11.113281 101.757812 11.113281 C 105.964844 11.113281 108.621094 14.445312 108.621094 19.234375 C 108.621094 24.167969 105.613281 27.351562 101.496094 27.351562 C 98.285156 27.351562 96.882812 25.042969 96.882812 25.042969 L 96.851562 25.042969 C 96.851562 25.042969 96.910156 25.511719 96.910156 26.09375 L 96.910156 26.96875 L 93.261719 26.96875 L 93.261719 7.144531 "/>
</g>
</g>
</svg>

<svg xmlns="http://www.w3.org/2000/svg" width="176pt" height="36.467" viewBox="0 0 176 27.35"><defs><clipPath id="a"><path d="M154 19h8v8.352h-8Zm0 0"/></clipPath><clipPath id="b"><path d="M24 11h16v16.352H24Zm0 0"/></clipPath><clipPath id="c"><path d="M110 11h16v16.352h-16Zm0 0"/></clipPath><clipPath id="d"><path d="M127 11h15v16.352h-15Zm0 0"/></clipPath><clipPath id="e"><path d="M58 11h16v16.352H58Zm0 0"/></clipPath><clipPath id="f"><path d="M93 7h16v20.352H93Zm0 0"/></clipPath></defs><path d="M161.117 18.621c-5.851-8.441-6.781-20.469-.672-18.387 6.14 2.11 14.809 8.38.672 18.387" style="stroke:none;fill-rule:nonzero;fill:#4dafe6;fill-opacity:1"/><path d="M161.117 18.621c-5.789 3.84-13.687 4.156-12.793.64.93-3.71 4.703-9.433 12.793-.64" style="stroke:none;fill-rule:nonzero;fill:#2a4ea4;fill-opacity:1"/><path d="M161.531 19.293c1.824 3.102 6.27 4.352 9.66 1.055 4.606-4.477 11.352-14.23-9.66-1.055" style="stroke:none;fill-rule:nonzero;fill:#78d0f2;fill-opacity:1"/><g clip-path="url(#a)"><path d="M161.531 19.293c-4.539 3.039-8.183 7.93-5.98 7.898 2.238-.062 7.644-3.07 5.98-7.898" style="stroke:none;fill-rule:nonzero;fill:#6478c3;fill-opacity:1"/></g><path d="M0 7.145h12.41v3.386H3.914v5.082h7.152V19H3.914v8H0zM14.54 11.465h3.71v2.687c0 .582-.059 1.078-.059 1.078h.059c.7-2.218 2.54-3.968 4.934-3.968.351 0 .703.058.703.058v3.797s-.41-.058-.907-.058c-1.636 0-3.503.933-4.234 3.238-.234.762-.32 1.605-.32 2.512v6.132h-3.887z" style="stroke:none;fill-rule:nonzero;fill:#2a4ea5;fill-opacity:1"/><g clip-path="url(#b)"><path d="M35.566 17.305c-.058-2.102-1.375-3.211-3.066-3.211-1.988 0-3.36 1.226-3.71 3.21Zm-2.98-6.22c4.469 0 6.863 3.243 6.863 7.36 0 .465-.09 1.489-.09 1.489H28.645c.234 2.714 2.335 4.117 4.64 4.117 2.485 0 4.469-1.696 4.469-1.696l1.488 2.774s-2.363 2.223-6.219 2.223c-5.136 0-8.32-3.711-8.32-8.122 0-4.785 3.27-8.144 7.883-8.144" style="stroke:none;fill-rule:nonzero;fill:#2a4ea5;fill-opacity:1"/></g><g clip-path="url(#c)"><path d="M121.406 17.305c-.054-2.102-1.37-3.211-3.062-3.211-1.989 0-3.36 1.226-3.711 3.21Zm-2.976-6.22c4.468 0 6.863 3.243 6.863 7.36 0 .465-.09 1.489-.09 1.489h-10.715c.235 2.714 2.336 4.117 4.645 4.117 2.48 0 4.465-1.696 4.465-1.696l1.492 2.774s-2.367 2.223-6.223 2.223c-5.137 0-8.32-3.711-8.32-8.122.027-4.785 3.27-8.144 7.883-8.144" style="stroke:none;fill-rule:nonzero;fill:#4eace5;fill-opacity:1"/></g><g clip-path="url(#d)"><path d="M138.11 17.305c-.06-2.102-1.372-3.211-3.067-3.211-1.984 0-3.356 1.226-3.707 3.21Zm-2.977-6.22c4.469 0 6.86 3.243 6.86 7.36 0 .465-.087 1.489-.087 1.489h-10.715c.235 2.714 2.336 4.117 4.641 4.117 2.484 0 4.469-1.696 4.469-1.696l1.488 2.774s-2.363 2.223-6.219 2.223c-5.136 0-8.32-3.711-8.32-8.122 0-4.785 3.238-8.144 7.883-8.144" style="stroke:none;fill-rule:nonzero;fill:#4eace5;fill-opacity:1"/></g><path d="M41.957 11.465h3.711v1.781c0 .586-.059 1.05-.059 1.05h.059c.672-1.312 2.363-3.21 5.488-3.21 3.477 0 5.403 1.809 5.403 5.898v9.985h-3.825V17.8c0-1.899-.496-3.153-2.453-3.153-2.074 0-3.59 1.313-4.176 3.153-.203.644-.261 1.344-.261 2.074V27H41.96V11.465z" style="stroke:none;fill-rule:nonzero;fill:#2a4ea5;fill-opacity:1"/><g clip-path="url(#e)"><path d="M66.863 11.086c4.063 0 5.957 2.309 5.957 2.309L71.13 16.05s-1.606-1.664-4.059-1.664c-2.863 0-4.703 2.16-4.703 4.816 0 2.629 1.899 4.875 4.848 4.875 2.629 0 4.555-1.984 4.555-1.984l1.492 2.746s-2.223 2.512-6.395 2.512c-5.14 0-8.41-3.622-8.41-8.118 0-4.41 3.27-8.148 8.406-8.148" style="stroke:none;fill-rule:nonzero;fill:#2a4ea5;fill-opacity:1"/></g><path d="M74.953 7.145h3.856v5.722c0 .758-.059 1.313-.059 1.313h.059c.757-1.489 2.656-3.067 5.343-3.067 3.446-.027 5.403 1.782 5.403 5.871v9.985h-3.828V17.8c0-1.899-.497-3.153-2.45-3.153-2.047 0-3.62 1.344-4.207 3.211-.175.614-.234 1.286-.234 2.016V27h-3.883z" style="stroke:none;fill-rule:nonzero;fill:#2a4ea5;fill-opacity:1"/><g clip-path="url(#f)"><path d="M100.852 24.078c2.132 0 3.886-1.723 3.886-4.816 0-2.95-1.578-4.875-3.855-4.875-2.016 0-3.883 1.457-3.883 4.906 0 2.422 1.254 4.785 3.852 4.785m-7.59-16.933h3.855v4.906c0 .758-.062 1.312-.062 1.312h.062s1.371-2.25 4.64-2.25c4.208 0 6.864 3.332 6.864 8.121 0 4.934-3.008 8.118-7.125 8.118-3.21 0-4.613-2.309-4.613-2.309h-.031s.058.469.058 1.05v.876h-3.648z" style="stroke:none;fill-rule:nonzero;fill:#4eace5;fill-opacity:1"/></g></svg>
